X:1
T:Title
%%score { 1 | 2 }
L:1/8
M:4/4
K:Db
V:1 treble nm="Grand Piano"
V:2 bass 
V:1
 z4 z2 z[Q:1/4=94] [FA] | [FA][Fd][Fd][Fc] [Fe] [Fd]2 [FA] | [Ac]BB=A B3 [GB] | cAB_c =cABc | %4
 [Fd][Fd][_Fc][FB] [=FA]3 [FA] | [FA][Fd][Fd][Fc] [Fe][Fd][DF][FA] | [Ac]BB=A B3 [GB] | %7
 ccBA [Fd][Fd]AG |[M:7/8] F>G[A,CF][K:bass] [G,CE] [F,D]3 |[M:1/8][K:treble] [DFA] | %10
[M:4/4] Aeee e c2 A | [Fd][Fd][_Fc][FB] [=FA]3 [FA] | [DGB][DGB][=DAB][DAB] [EGB][EGB][E=GB][EGB] | %13
 [EAe][FAd][EAc][D=GB] [CEA]3 [C_GA] | [DFA][Fd][Fd][Fc] [Fe][Fd][DF][FA] | [Ac]BB=A B3 [GB] | %16
 cAB_c =cABc |[M:7/8] [Fd][Fd][Gd] [Ed] [Fd]3 |] %18
V:2
 z4 z2 z [D,D] | [D,D][D,A,][D,A,][D,A,] [D,A,] [D,D]2 [D,D] | %2
 [G,D][G,DG][G,DG][G,CG] [G,DG]3 [E,E] | [A,EG][A,CG][A,DG][A,=DG] [A,EG][A,CG][A,_DG][A,G] | %4
 [D,A,][D,A,][D,=G,][D,B,] [D,D]3 [D,D] | [D,D][D,A,][D,A,][D,A,] [D,A,][D,D][D,A,][D,D] | %6
 [G,D][G,DG][G,DG][G,CG] [G,DG]3 [E,E] | %7
 [A,EG][A,EG][A,DG][A,CG][K:bass] [D,A,][D,A,][F,A,D][G,B,D] |[M:7/8] [A,D]>[A,E]A,, A,, D,3 | %9
[M:1/8] D, |[M:4/4][K:treble] [A,CG][A,CG][A,CG][A,CG] [A,CG] [A,EG]2 [A,CG] | %11
 [D,A,][D,A,][D,=G,][D,B,] [D,D]3 [D,D] | G,G,F,F, E,E,D,D, | C,D,E,E, A,3 A, | %14
 D,[D,A,][D,A,][D,A,] [D,A,][D,D][D,A,][D,D] | [G,D][G,DG][G,DG][G,CG] [G,DG]3 [E,E] | %16
 [A,EG][A,CG][A,DG][A,=DG] [A,EG][A,CG][A,_DG][A,G] | %17
[M:7/8][K:bass] [D,A,][D,A,][D,B,] [D,=A,] [D,_A,]3 |] %18

